icons/pop_pyr_stg4.svg

<?xml version="1.0" standalone="no"?>
<!DOCTYPE svg PUBLIC "-//W3C//DTD SVG 20010904//EN"
 "http://www.w3.org/TR/2001/REC-SVG-20010904/DTD/svg10.dtd">
<svg version="1.0" xmlns="http://www.w3.org/2000/svg"
 width="113.000000pt" height="134.000000pt" viewBox="0 0 113.000000 134.000000"
 preserveAspectRatio="xMidYMid meet">

<g transform="translate(0.000000,134.000000) scale(0.100000,-0.100000)"
fill="#000000" stroke="none">
<path d="M424 1197 c-210 -167 -305 -272 -347 -381 -37 -98 -4 -181 147 -374
94 -119 120 -158 122 -177 0 -5 4 -18 9 -28 13 -31 -5 -84 -46 -131 l-41 -46
-114 0 c-107 0 -149 -12 -87 -24 36 -7 949 -7 986 0 62 12 20 24 -87 24 l-114
0 -41 47 c-78 91 -67 141 70 313 173 219 207 308 158 411 -55 114 -147 212
-344 368 -70 56 -130 101 -134 101 -4 0 -65 -46 -137 -103z m114 -939 c-10 -6
-10 -8 0 -8 9 0 12 -26 12 -95 l0 -95 -127 0 -127 0 31 33 c41 43 51 64 54
117 3 58 -9 80 -131 236 -121 156 -160 228 -160 297 0 106 104 238 330 420
l125 101 3 -499 c2 -392 0 -500 -10 -507z m164 903 c194 -156 311 -289 311
-351 0 -16 4 -27 9 -24 4 3 8 -17 8 -44 0 -68 -39 -141 -160 -296 -122 -156
-134 -178 -131 -236 3 -53 13 -74 54 -117 l31 -33 -127 0 -127 0 0 600 c0 330
2 600 5 600 2 0 60 -45 127 -99z"/>
<path d="M105 790 c-3 -5 -1 -10 4 -10 6 0 11 5 11 10 0 6 -2 10 -4 10 -3 0
-8 -4 -11 -10z"/>
<path d="M200 790 c0 -5 5 -10 11 -10 5 0 7 5 4 10 -3 6 -8 10 -11 10 -2 0 -4
-4 -4 -10z"/>
<path d="M230 790 c0 -5 5 -10 10 -10 6 0 10 5 10 10 0 6 -4 10 -10 10 -5 0
-10 -4 -10 -10z"/>
<path d="M330 790 c0 -5 5 -10 11 -10 5 0 7 5 4 10 -3 6 -8 10 -11 10 -2 0 -4
-4 -4 -10z"/>
<path d="M360 790 c0 -5 5 -10 10 -10 6 0 10 5 10 10 0 6 -4 10 -10 10 -5 0
-10 -4 -10 -10z"/>
<path d="M395 790 c-3 -5 -1 -10 4 -10 6 0 11 5 11 10 0 6 -2 10 -4 10 -3 0
-8 -4 -11 -10z"/>
<path d="M490 790 c0 -5 5 -10 11 -10 5 0 7 5 4 10 -3 6 -8 10 -11 10 -2 0 -4
-4 -4 -10z"/>
<path d="M525 790 c-3 -5 -1 -10 4 -10 6 0 11 5 11 10 0 6 -2 10 -4 10 -3 0
-8 -4 -11 -10z"/>
<path d="M620 790 c0 -5 5 -10 11 -10 5 0 7 5 4 10 -3 6 -8 10 -11 10 -2 0 -4
-4 -4 -10z"/>
<path d="M655 790 c-3 -5 -1 -10 4 -10 6 0 11 5 11 10 0 6 -2 10 -4 10 -3 0
-8 -4 -11 -10z"/>
<path d="M750 790 c0 -5 5 -10 11 -10 5 0 7 5 4 10 -3 6 -8 10 -11 10 -2 0 -4
-4 -4 -10z"/>
<path d="M780 790 c0 -5 5 -10 10 -10 6 0 10 5 10 10 0 6 -4 10 -10 10 -5 0
-10 -4 -10 -10z"/>
<path d="M815 790 c-3 -5 -1 -10 4 -10 6 0 11 5 11 10 0 6 -2 10 -4 10 -3 0
-8 -4 -11 -10z"/>
<path d="M910 790 c0 -5 5 -10 11 -10 5 0 7 5 4 10 -3 6 -8 10 -11 10 -2 0 -4
-4 -4 -10z"/>
<path d="M945 790 c-3 -5 -1 -10 4 -10 6 0 11 5 11 10 0 6 -2 10 -4 10 -3 0
-8 -4 -11 -10z"/>
</g>
</svg>

<?xml version="1.0" encoding="utf-8"?>
<!-- Generator: Adobe Illustrator 25.4.1, SVG Export Plug-In . SVG Version: 6.00 Build 0)  -->
<svg version="1.1" id="Ebene_1" xmlns="http://www.w3.org/2000/svg" xmlns:xlink="http://www.w3.org/1999/xlink" x="0px" y="0px"
	 viewBox="0 0 113 134" style="enable-background:new 0 0 113 134;" xml:space="preserve">
<style type="text/css">
	.st0{fill:#FDB462;}
</style>
<rect class="st0" width="113" height="134"/>
<g transform="translate(0.000000,134.000000) scale(0.100000,-0.100000)">
	<path d="M424,1197C214,1030,119,925,77,816c-37-98-4-181,147-374c94-119,120-158,122-177c0-5,4-18,9-28c13-31-5-84-46-131l-41-46
		H154C47,60,5,48,67,36c36-7,949-7,986,0c62,12,20,24-87,24H852l-41,47c-78,91-67,141,70,313c173,219,207,308,158,411
		c-55,114-147,212-344,368c-70,56-130,101-134,101S496,1254,424,1197z M538,258c-10-6-10-8,0-8c9,0,12-26,12-95V60H423H296l31,33
		c41,43,51,64,54,117c3,58-9,80-131,236C129,602,90,674,90,743c0,106,104,238,330,420l125,101l3-499C550,373,548,265,538,258z
		 M702,1161c194-156,311-289,311-351c0-16,4-27,9-24c4,3,8-17,8-44c0-68-39-141-160-296C748,290,736,268,739,210c3-53,13-74,54-117
		l31-33H697H570v600c0,330,2,600,5,600C577,1260,635,1215,702,1161z"/>
	<path d="M105,790c-3-5-1-10,4-10c6,0,11,5,11,10c0,6-2,10-4,10C113,800,108,796,105,790z"/>
	<path d="M200,790c0-5,5-10,11-10c5,0,7,5,4,10c-3,6-8,10-11,10C202,800,200,796,200,790z"/>
	<path d="M230,790c0-5,5-10,10-10c6,0,10,5,10,10c0,6-4,10-10,10C235,800,230,796,230,790z"/>
	<path d="M330,790c0-5,5-10,11-10c5,0,7,5,4,10c-3,6-8,10-11,10C332,800,330,796,330,790z"/>
	<path d="M360,790c0-5,5-10,10-10c6,0,10,5,10,10c0,6-4,10-10,10C365,800,360,796,360,790z"/>
	<path d="M395,790c-3-5-1-10,4-10c6,0,11,5,11,10c0,6-2,10-4,10C403,800,398,796,395,790z"/>
	<path d="M490,790c0-5,5-10,11-10c5,0,7,5,4,10c-3,6-8,10-11,10C492,800,490,796,490,790z"/>
	<path d="M525,790c-3-5-1-10,4-10c6,0,11,5,11,10c0,6-2,10-4,10C533,800,528,796,525,790z"/>
	<path d="M620,790c0-5,5-10,11-10c5,0,7,5,4,10c-3,6-8,10-11,10C622,800,620,796,620,790z"/>
	<path d="M655,790c-3-5-1-10,4-10c6,0,11,5,11,10c0,6-2,10-4,10C663,800,658,796,655,790z"/>
	<path d="M750,790c0-5,5-10,11-10c5,0,7,5,4,10c-3,6-8,10-11,10C752,800,750,796,750,790z"/>
	<path d="M780,790c0-5,5-10,10-10c6,0,10,5,10,10c0,6-4,10-10,10C785,800,780,796,780,790z"/>
	<path d="M815,790c-3-5-1-10,4-10c6,0,11,5,11,10c0,6-2,10-4,10C823,800,818,796,815,790z"/>
	<path d="M910,790c0-5,5-10,11-10c5,0,7,5,4,10c-3,6-8,10-11,10C912,800,910,796,910,790z"/>
	<path d="M945,790c-3-5-1-10,4-10c6,0,11,5,11,10c0,6-2,10-4,10C953,800,948,796,945,790z"/>
</g>
</svg>
